X:1
T:Title
%%score { ( 1 3 ) | ( 2 4 5 ) }
L:1/8
Q:1/4=75
M:2/4
K:Ab
V:1 treble nm="Grand Piano"
V:3 treble 
V:2 bass 
V:4 bass 
V:5 bass 
V:1
 [CE]>[_C=D] [=CE][CA] | [DF][Fd] [Ec]2 | c/B/=A/B/ cB | [CA]2 .[CE]2 | [CE]>[_C=D] [=CE][CA] | %5
w: Adam~Geibel * * *|||||
 [DF][Fd] [Ec]2 | B/=A/B/c/ [EB][Ee] | [A,=DF]2 .[G,E]2 | [DGB]2 [EGc][DGB] | [CEA][EGB] [EAc]2 | %10
w: |||||
 [E=Ac]2 [FAd][EAc] | [E=Ac]2 .[DB]2 | [DB]>c BA | [EG]B [Ge]2 | .[=DB]2 [B,DG][A,DF] | %15
w: |||||
[M:9/16] [A,=DF]->[A,DF]E-E/ z/ z/ |[M:2/4] e4 | G4 | Ed cB | c>d .e2 | A>A BA | %21
w: ||||||
[M:5/8] [Ad][Ae] [Af]3 |[M:2/4] [EAe]>[CA] [CA][FBd] | [DGB]2 [CEA]2 |] %24
w: |||
V:2
 [A,,A,]>[A,,A,] [A,,A,][A,,A,] | [D,A,][D,A,] [A,,A,]2 | [E,G,D][E,G,D] [E,G,E][E,G,D] | %3
 [A,,A,]2 .[A,,A,]2 | [A,,A,]>[A,,A,] [A,,A,][A,,A,] | [D,A,][D,A,] [A,,A,]2 | %6
 [B,,G,][B,,G,] [B,,G,][B,,G,] | B,,2 .E,2 | .E,,>[K:treble]B[K:bass] E,E, | A,,E, A,A,, | %10
 .F,,>[K:treble]c[K:bass] F,F, | B,,F, .B,2 | z2 D2 | z G, B,G, | z A B,,B,, | %15
[M:9/16] B,,->B,,[E,G,]-[E,G,]/ z/ z/ |[M:2/4] [A,CE][A,C] .[A,C]2 | E-[B,E] .[B,D]2 | %18
 E,,E, [G,D]E, | A,,E, .[A,C]2 | [_G,CE]>[G,CE] [G,CE][G,CE] |[M:5/8] [F,D][E,C] [D,D]3 | %22
[M:2/4] C,>F, F,D, | E,2 A,,2 |] %24
V:3
 x4 | x4 | x4 | x4 | x4 | x4 | EE z2 | x4 | x4 | x4 | x4 | x4 | x4 | x4 | x4 |[M:9/16] x9/2 | %16
[M:2/4] z E EA | z D EE | x4 | x4 | x4 |[M:5/8] x5 |[M:2/4] x4 | x4 |] %24
V:4
 x4 | x4 | x4 | x4 | x4 | x4 | x4 | x4 | z E,[K:treble][K:bass] z2 | x4 | %10
 z F,[K:treble][K:bass] z2 | x4 | z F, B,F, | B,,4 | [B,,F,]2 z2 |[M:9/16] x9/2 |[M:2/4] x4 | %17
 .[B,D]2 z2 | x4 | x4 | x4 |[M:5/8] x5 |[M:2/4] x4 | x4 |] %24
V:5
 x4 | x4 | x4 | x4 | x4 | x4 | x4 | x4 | x3/2[K:treble] x/[K:bass] x2 | x4 | %10
 x3/2[K:treble] x/[K:bass] x2 | x4 | B,,4 | x4 | x4 |[M:9/16] x9/2 |[M:2/4] x4 | x4 | x4 | x4 | %20
 x4 |[M:5/8] x5 |[M:2/4] x4 | x4 |] %24

